X:23
T:Miss Sarah Drummond Of Perth
R:strathspey
C:Niel Gow (1727-1807), Scotland
H:See also highland#28
Z:id:hn-strathspey-23
M:C
L:1/8
K:Amix
A<A e>d B<d e2 | d>g B>g d>=c B<G | A<A e>d B<d e>g | a>e g<B A2 A2 :|
|: a2 e>a c<a e>f | g2 d>g B<g d>g |1 a2 e>a c<a e>a | g<e g>B A2 A2 :|
[2 a2 e>a g<b e>g | a>e g<B A2 A2 :|

